X: 7
T: Song for Success in the Ball Game
C: Anon.
%%abc-version 2.0
%%abcx-abcm2ps-target-version 5.9.1 (29 Sep 2008)
%%abc-creator hum2abc beta
%%abcx-conversion-date 2020/08/10 20:56:09
%%abc-copyright Electronic Copyright 2000 David Huron
%%abc-edited-by David Huron
%%abcx-initial-encoding-date August 27, 2000
%%humdrum-veritas 3015701528
%%humdrum-veritas-data 1413635668
%%linebreak <none>
%%barnumbers 0
L: 1/8
M: 2/4
Q: 1/4=84
K: A clef=bass
A,/ A,/ A, A, A, | 
A,/ A,/ A, A, A, | 
C/ B,/ A, A, z | 
A,/ A,/ B, B, A, | 
A,/ A,/ G, A, G, | 
A,/ A,/ A, A, A, | 
A,/ A,/ A, A, z | 
A,/ A,/ A, A, A, | 
A,/ A,/ B, B, A, | 
B,/ B,/ A, B, A, | 
A,/ A,/ A, A, A, | 
B,/ B,/ A, A, z | 
A,/ A,/ A, A, A, | 
A, A,/ C/ B, A, | 
B,/ B,/ A, A, A, | 
B,/ B,/ A, A, z | 
A,/ A,/ C B, A, | 
C/ C/ B, A, A, | 
B,/ B,/ A, A, A, | 
B,/ B,/ A, A, z | 
A,/ A,/ C B, A, | 
C/ C/ B, A, A, | 
B,/ B,/ A, A, A, | 
B,/ B,/ A, A, z |]  


